images/heart.svg

<svg width="19" height="17" viewBox="0 0 19 17" fill="none" xmlns="http://www.w3.org/2000/svg">
<path d="M9.29282 17C8.99282 17 8.69282 16.9 8.49282 16.6C3.09282 10.5 1.79282 9.1 1.49282 8.7C0.792822 7.8 0.392822 6.6 0.392822 5.4C0.392822 2.4 2.79282 0 5.89282 0C7.19282 0 8.39282 0.5 9.39282 1.3C10.3928 0.5 11.6928 0 12.8928 0C15.8928 0 18.3928 2.4 18.3928 5.4C18.3928 6.7 17.8928 7.9 17.0928 8.8L10.0928 16.7C9.89282 16.9 9.69282 17 9.29282 17ZM3.29282 7.5C3.59282 7.9 6.79282 11.5 9.39282 14.4L15.5928 7.4C16.0928 6.9 16.2928 6.2 16.2928 5.4C16.2928 3.6 14.7928 2.1 12.9928 2.1C11.9928 2.1 10.9928 2.6 10.2928 3.4C9.99282 3.7 9.69282 3.8 9.39282 3.8C9.09282 3.8 8.79282 3.6 8.59282 3.4C7.89282 2.6 6.89282 2.1 5.89282 2.1C4.09282 2.1 2.59282 3.6 2.59282 5.4C2.49282 6.3 2.89282 7 3.29282 7.5C3.19282 7.5 3.19282 7.5 3.29282 7.5Z" fill="black"/>
</svg>

<svg xmlns="http://www.w3.org/2000/svg" width="19" height="17" fill="none">
  <path fill="#000" d="M9.3 17a.9.9 0 0 1-.8-.4c-5.4-6.1-6.7-7.5-7-7.9A5.4 5.4 0 0 1 5.9 0c1.3 0 2.5.5 3.5 1.3a5.46 5.46 0 0 1 9 4.1c0 1.3-.5 2.5-1.3 3.4l-7 7.9c-.2.2-.4.3-.8.3Zm-6-9.5c.3.4 3.5 4 6.1 6.9l6.2-7c.5-.5.7-1.2.7-2 0-1.8-1.5-3.3-3.3-3.3-1 0-2 .5-2.7 1.3-.3.3-.6.4-.9.4-.3 0-.6-.2-.8-.4-.7-.8-1.7-1.3-2.7-1.3-1.8 0-3.3 1.5-3.3 3.3-.1.9.3 1.6.7 2.1-.1 0-.1 0 0 0Z"/>
</svg>
